svg/user/contacts_3_line.svg

<?xml version="1.0" encoding="UTF-8"?>
<svg width="24px" height="24px" viewBox="0 0 24 24" version="1.1" xmlns="http://www.w3.org/2000/svg" xmlns:xlink="http://www.w3.org/1999/xlink">
    <title>contace_3_line</title>
    <g id="Icon" stroke="none" stroke-width="1" fill="none" fill-rule="evenodd">
        <g id="User" transform="translate(-576.000000, -96.000000)" fill-rule="nonzero">
            <g id="contace_3_line" transform="translate(576.000000, 96.000000)">
                <path d="M24,0 L24,24 L0,24 L0,0 L24,0 Z M12.5935,23.2578 L12.5819,23.2595 L12.5109,23.295 L12.4919,23.2987 L12.4767,23.295 L12.4057,23.2595 C12.3958,23.2564 12.387,23.259 12.3821,23.2649 L12.378,23.2758 L12.3609,23.7031 L12.3659,23.7235 L12.3769,23.7357 L12.4805,23.8097 L12.4953,23.8136 L12.5071,23.8097 L12.6107,23.7357 L12.6233,23.7197 L12.6267,23.7031 L12.6096,23.2758 C12.6076,23.2657 12.601,23.2593 12.5935,23.2578 Z M12.8584,23.1453 L12.8445,23.1473 L12.6598,23.2397 L12.6499,23.2499 L12.6472,23.2611 L12.6651,23.6906 L12.6699,23.7034 L12.6784,23.7105 L12.8793,23.8032 C12.8914,23.8069 12.9022,23.803 12.9078,23.7952 L12.9118,23.7812 L12.8777,23.1665 C12.8753,23.1546 12.8674,23.147 12.8584,23.1453 Z M12.143,23.1473 C12.1332,23.1424 12.1222,23.1453 12.1156,23.1526 L12.1099,23.1665 L12.0758,23.7812 C12.0751,23.7927 12.0828,23.8019 12.0926,23.8046 L12.1083,23.8032 L12.3092,23.7105 L12.3186,23.7024 L12.3225,23.6906 L12.3404,23.2611 L12.3372,23.2485 L12.3278,23.2397 L12.143,23.1473 Z" id="MingCute"></path>
                <path d="M16.1072,3 C16.86908,3 17.5258169,3.45008569 17.8259383,4.09884975 L17.8847,4.24082 L19.9743,4.93735 C20.5431429,5.12694571 20.9399679,5.63472704 20.9937549,6.22324344 L21,6.36038 L21,17.6396 C21,18.2391786 20.6438066,18.7762444 20.10244,19.0133229 L19.9743,19.0626 L17.8847,19.7592 C17.6368067,20.4350267 17.0143356,20.9301849 16.268759,20.9932023 L16.1072,21 L6,21 C4.94563773,21 4.08183483,20.18415 4.00548573,19.1492661 L4,19 L4,5 C4,3.94563773 4.81587733,3.08183483 5.85073759,3.00548573 L6,3 L16.1072,3 Z M16,5 L6,5 L6,19 L16,19 L16,5 Z M18,6.38743 L18,17.6126 L19,17.2792 L19,6.72076 L18,6.38743 Z M11,13 C11.8412,13 12.7402,13.1374 13.4686,13.4612 C14.1632,13.7699 15,14.4037 15,15.5 C15,16.0523 14.5523,16.5 14,16.5 C13.4528,16.5 13.0082,16.0605 13.0001,15.5152 L12.9491259,15.463837 C12.896,15.4184 12.8025333,15.3537333 12.6564,15.2888 C12.2598,15.1126 11.6588,15 11,15 C10.3412,15 9.7402,15.1126 9.34364,15.2888 C9.19750667,15.3537333 9.10401333,15.4184 9.05087259,15.463837 L8.99989,15.5152 L8.99989,15.5152 C8.99177,16.0605 8.54721,16.5 8,16.5 C7.44772,16.5 7,16.0523 7,15.5 C7,14.4037 7.83684,13.7699 8.53136,13.4612 C9.2598,13.1374 10.1588,13 11,13 Z M11,8 C12.1046,8 13,8.89543 13,10 C13,11.1046 12.1046,12 11,12 C9.89543,12 9,11.1046 9,10 C9,8.89543 9.89543,8 11,8 Z" id="形状" fill="#09244B"></path>
            </g>
        </g>
    </g>
</svg>

<svg xmlns="http://www.w3.org/2000/svg" width="24" height="24"><g fill="none" fill-rule="nonzero"><path d="M24 0v24H0V0h24ZM12.594 23.258l-.012.002-.071.035-.02.004-.014-.004-.071-.036c-.01-.003-.019 0-.024.006l-.004.01-.017.428.005.02.01.013.104.074.015.004.012-.004.104-.074.012-.016.004-.017-.017-.427c-.002-.01-.009-.017-.016-.018Zm.264-.113-.014.002-.184.093-.01.01-.003.011.018.43.005.012.008.008.201.092c.012.004.023 0 .029-.008l.004-.014-.034-.614c-.003-.012-.01-.02-.02-.022Zm-.715.002a.023.023 0 0 0-.027.006l-.006.014-.034.614c0 .012.007.02.017.024l.015-.002.201-.093.01-.008.003-.011.018-.43-.003-.012-.01-.01-.184-.092Z"/><path fill="#09244B" d="M16.107 3c.762 0 1.419.45 1.719 1.099l.059.142 2.09.696a1.5 1.5 0 0 1 1.019 1.286L21 6.36v11.28a1.5 1.5 0 0 1-.898 1.373l-.128.05-2.09.696a1.894 1.894 0 0 1-1.615 1.234l-.162.007H6a2 2 0 0 1-1.995-1.85L4 19V5a2 2 0 0 1 1.85-1.995L6 3h10.107ZM16 5H6v14h10V5Zm2 1.387v11.226l1-.334V6.721l-1-.334ZM11 13c.841 0 1.74.137 2.469.461.694.309 1.531.943 1.531 2.039a1 1 0 0 1-2 .015l-.05-.051a1.208 1.208 0 0 0-.294-.175C12.26 15.113 11.66 15 11 15c-.659 0-1.26.113-1.656.289a1.21 1.21 0 0 0-.293.175L9 15.515a1 1 0 0 1-2-.015c0-1.096.837-1.73 1.531-2.039C9.26 13.137 10.16 13 11 13Zm0-5a2 2 0 1 1 0 4 2 2 0 0 1 0-4Z"/></g></svg>
